icons/drupal.svg

<?xml version="1.0" encoding="UTF-8"?>
<svg width="512px" height="138px" viewBox="0 0 512 138" version="1.1" xmlns="http://www.w3.org/2000/svg" xmlns:xlink="http://www.w3.org/1999/xlink" preserveAspectRatio="xMidYMid">
    <g>
        <path d="M52.6781887,0 C55.286466,9.87102797 63.7320391,18.6812266 72.8587039,27.8222787 L74.7939264,29.757408 C89.2172485,44.1696861 105.359467,60.5426215 105.359467,84.97314 C105.359467,103.793796 95.3187668,121.1848 79.0196004,130.595128 C62.7204341,140.005456 42.6390329,140.005456 26.3398665,130.595128 C10.0407001,121.1848 0,103.793796 0,84.97314 C0,61.0346024 15.4978744,44.8344134 29.6867646,30.633326 L30.5626111,29.7574075 L30.5626111,29.7574075 L30.9990061,29.3212662 C40.6840225,19.639183 49.9275145,10.4094477 52.6781887,0 Z M413.000542,78.8056268 C416.193484,96.0340054 405.732509,112.8572 388.86879,117.613974 C372.95334,121.48992 365.781995,109.129632 364.478355,105.883356 C364.342607,105.54636 364.218542,105.17887 363.663836,105.185871 C363.085752,105.192444 363.022255,105.788212 363.016133,105.873289 L363.015531,105.883356 L363.010857,114.512822 L363.006174,114.508109 L363.006174,137.5481 L345.761272,137.5481 L345.761272,84.9802579 C345.763084,67.4585027 359.116064,52.8246443 376.564404,51.2223506 C394.012744,49.6200569 409.8076,61.5772482 413.000542,78.8056268 Z M52.6773771,79.0136458 C52.6773771,79.0136458 49.3696762,82.6103895 45.9055028,86.4574089 L45.4214313,86.9954898 C42.9184252,89.7804876 40.4102717,92.6146663 39.0777255,94.244116 C36.2257763,97.5862453 34.6287744,101.818414 34.561863,106.211473 C34.561863,111.016665 36.4706495,115.625063 39.8684317,119.022849 C43.2662139,122.420635 47.8746097,124.329431 52.6798019,124.329431 C62.6860572,124.329431 70.7977169,116.217728 70.7977115,106.211473 C70.8365877,101.782208 69.2150469,97.4990175 66.2526441,94.2059845 C64.9102664,92.7092511 62.5124008,90.0269221 60.1014928,87.3282107 L59.6194462,86.7885964 C56.0876924,82.8349043 52.6773771,79.0136458 52.6773771,79.0136458 Z M457.119288,51.2230878 C474.392397,52.8098047 487.651471,67.1680507 487.916318,84.4557083 L487.920357,84.9804632 L487.920357,116.486062 L470.675494,116.486062 L470.666098,105.883561 C470.666098,105.883561 470.640345,105.193145 470.017793,105.183788 C469.46074,105.179075 469.339022,105.546566 469.203284,105.883561 C467.899634,109.12755 460.728319,121.490077 444.812839,117.611901 C427.950023,112.85455 417.490185,96.0316222 420.683646,78.8040633 C423.877107,61.5765044 439.671704,49.6203435 457.119288,51.2230878 Z M339.667075,52.2973912 L339.662323,84.5028311 C339.662323,103.100563 327.526777,118.173452 308.931441,118.173452 C290.517392,118.173452 278.615832,103.400513 278.379643,85.0596941 L278.376061,84.5028311 L278.380774,52.3278182 L295.548435,52.3278182 L295.548435,84.5028311 C295.548435,93.914014 299.620935,101.527743 309.036801,101.527743 C318.334596,101.527743 322.385007,94.0963722 322.481258,84.8422014 L322.483017,84.5028311 L322.454947,52.2973912 L339.667075,52.2973912 Z M512,32.6726102 L512,116.512069 L494.872162,116.512069 L494.872162,32.6726102 L512,32.6726102 Z M264.37989,51.5973348 C266.671496,52.1169593 268.886126,52.9281557 270.969832,54.0104533 L271.534829,54.3123315 L271.534829,73.8205179 L271.522642,73.8085907 C271.490074,73.7770627 271.391961,73.6841454 271.225006,73.5431721 L271.08683,73.42864 C269.978126,72.5257166 266.762024,70.2699357 260.890178,68.8796449 C246.259991,65.4202509 238.640041,78.6950692 238.489105,81.7088001 L238.486818,81.7969567 L238.486818,116.457571 L221.286412,116.457571 L221.286412,52.4235969 L236.630798,52.4235969 L238.463362,63.6439759 C238.463362,63.6439759 238.524197,64.2267924 239.064883,64.2384372 C239.71793,64.2548924 239.72495,64.0301802 239.914532,63.6439759 C240.303054,62.8575368 249.615935,48.1895658 264.37989,51.5973348 Z M168.837668,32.6389762 C194.255612,32.6389762 213.534412,37.3036398 213.534412,74.4943808 C213.534412,111.329276 193.113493,116.352005 167.409964,116.352005 L147.845636,116.352005 L147.845636,32.6389762 L168.837668,32.6389762 Z M454.004052,67.8222371 C447.062317,67.8217587 440.803911,72.0031821 438.147426,78.4165104 C435.490942,84.8298387 436.959597,92.2119116 441.868488,97.1201171 C446.777379,102.028323 454.159656,103.495947 460.572614,100.838568 C466.985571,98.1811881 471.166121,91.9221983 471.164674,84.9804632 C471.161386,75.5046631 463.479852,67.8242013 454.004052,67.8222371 Z M379.677597,67.8219825 C370.202504,67.8247191 362.522107,75.505116 362.51937,84.980209 C362.517923,91.9221621 366.698732,98.1813033 373.111984,100.838542 C379.525235,103.495781 386.907701,102.027718 391.816403,97.1190155 C396.725105,92.2103133 398.193169,84.8278475 395.53593,78.414596 C392.878691,72.0013444 386.61955,67.8205355 379.677597,67.8219825 Z M172.552568,47.1508283 L165.165403,47.1501385 L165.165403,101.826812 L172.266517,102.009374 C186.831513,102.009374 196.212289,100.684694 196.212289,74.4943808 C196.212289,49.6318156 188.096347,47.1970376 172.552568,47.1508283 Z M52.6779247,30.3077395 C52.6779247,30.3077395 52.6757704,30.3098924 52.6715235,30.3141368 L52.5240522,30.4615215 C52.4040323,30.5814726 52.2175406,30.7678601 51.9778742,31.0074019 L50.5853225,32.3993047 C50.1545042,32.8299448 49.6784568,33.3058162 49.1782952,33.8058275 L46.7236848,36.260011 C46.2747065,36.7089794 45.8323892,37.1513327 45.4100298,37.5737888 L44.4034051,38.5807902 C44.3400947,38.6441352 44.2776465,38.7066202 44.216122,38.7681834 L43.2217425,39.7635024 C43.1252957,39.860082 43.0340212,39.9514993 42.9484117,40.0372623 L42.8554975,40.1300272 C40.8404727,42.1362485 36.7799248,45.8845836 41.6687457,51.1673085 C44.2089502,53.9123236 51.7174452,61.8091982 59.5235098,70.1317352 L60.5656718,71.2435143 C69.7797679,81.0791813 79.1186836,91.2139328 80.9515506,93.926265 C82.5267166,96.2574822 82.7544403,97.3494528 84.8855547,97.2718404 C86.0811455,97.2283118 86.9669612,95.8025824 87.3574578,94.9485722 C89.1865996,90.9483952 92.2887001,78.8266252 83.2874804,64.8181543 C77.0766388,55.1523093 64.8635491,42.3949219 57.8882954,35.4142295 L57.2952272,34.8219887 C54.4951857,32.031953 52.6779247,30.3077395 52.6779247,30.3077395 Z M29.3548122,54.7132409 C7.23943387,76.5912062 19.1604363,97.1386928 22.3905318,97.2483846 C22.7253464,97.2598339 23.2830841,97.3001262 23.6649473,96.2348379 C25.514993,91.0737111 40.3995708,76.1474917 43.8917572,72.5658428 C44.1706432,72.3427293 44.3408655,72.0110506 44.3595293,71.6543873 C44.3781931,71.297724 44.2435185,70.9500904 43.9894425,70.6990876 L43.9894425,70.6990876 Z" fill="#009DDE"></path>
    </g>
</svg>

<svg xmlns="http://www.w3.org/2000/svg" viewBox="0 0 512 137.653">
  <path fill="#009dde" d="M52.678 0c2.608 9.871 11.054 18.681 20.18 27.822l1.936 1.935c14.423 14.413 30.565 30.786 30.565 55.216A52.68 52.68 0 0 1 0 84.973c0-23.938 15.498-40.139 29.687-54.34l.876-.876.436-.436C40.684 19.64 49.928 10.41 52.679 0zm360.323 78.806c3.192 17.228-7.268 34.051-24.132 38.808-15.916 3.876-23.087-8.484-24.39-11.73-.136-.338-.26-.705-.815-.698-.578.007-.642.602-.648.687v.01l-.005 8.63-.005-.005v23.04H345.76V84.98c.002-17.521 13.354-32.155 30.803-33.758C394.012 49.62 409.807 61.577 413 78.806zm-360.324.208s-3.307 3.596-6.771 7.443l-.485.538c-2.503 2.785-5.01 5.62-6.343 7.25a18.88 18.88 0 0 0-4.516 11.966A18.118 18.118 0 0 0 52.68 124.33c10.006 0 18.118-8.111 18.118-18.118a17.718 17.718 0 0 0-4.545-12.005c-1.343-1.497-3.74-4.18-6.152-6.878l-.482-.54-6.942-7.774zm404.442-27.79c17.273 1.586 30.532 15.944 30.797 33.232l.004.524v31.506h-17.245l-.009-10.602s-.025-.69-.648-.7c-.557-.005-.679.363-.814.7-1.304 3.244-8.475 15.606-24.39 11.728-16.864-4.757-27.323-21.58-24.13-38.808 3.193-17.227 18.988-29.184 36.436-27.58zm-117.452 1.073-.005 32.206c0 18.598-12.135 33.67-30.73 33.67-18.415 0-30.316-14.772-30.553-33.113l-.004-.557.005-32.175h17.168v32.175c0 9.411 4.073 17.025 13.488 17.025 9.298 0 13.349-7.432 13.445-16.686l.002-.34-.028-32.205zM512 32.673v83.84h-17.128v-83.84zM264.38 51.597a27.48 27.48 0 0 1 6.59 2.413l.565.302v19.509l-.012-.012a6.127 6.127 0 0 0-.298-.266l-.138-.114c-1.109-.903-4.325-3.16-10.197-4.55-14.63-3.459-22.25 9.816-22.4 12.83l-.003.088v34.66h-17.2V52.425h15.344l1.832 11.22s.061.583.602.594c.653.017.66-.208.85-.594.388-.786 9.7-15.454 24.465-12.047zM168.838 32.64c25.418 0 44.696 4.665 44.696 41.855 0 36.835-20.42 41.858-46.124 41.858h-19.564V32.639zm285.166 35.183a17.162 17.162 0 1 0 17.16 17.158c-.002-9.475-7.684-17.156-17.16-17.158zm-74.326 0c-9.476.003-17.156 7.683-17.159 17.158a17.162 17.162 0 1 0 17.159-17.158zM172.553 47.151h-7.388v54.676l7.102.182c14.565 0 23.945-1.324 23.945-27.515 0-24.862-8.116-27.297-23.66-27.343zM52.678 30.308l-.006.006-.148.148-.546.545-1.393 1.392-1.407 1.407-2.454 2.454-1.314 1.314-1.007 1.007-.187.187-.994.996-.274.273-.092.093c-2.016 2.006-6.076 5.755-1.187 11.037 2.54 2.745 10.048 10.642 17.855 18.965l1.042 1.112c9.214 9.835 18.553 19.97 20.386 22.682 1.575 2.331 1.802 3.423 3.934 3.346 1.195-.044 2.081-1.47 2.471-2.323 1.83-4 4.932-16.122-4.07-30.13-6.21-9.667-18.423-22.424-25.399-29.405l-.593-.592c-2.8-2.79-4.617-4.514-4.617-4.514zM29.355 54.713C7.239 76.591 19.16 97.14 22.39 97.248c.334.012.892.052 1.274-1.013 1.85-5.161 16.735-20.088 20.227-23.67a1.251 1.251 0 0 0 .097-1.866z"/>
</svg>
